X:23
T: Blue Eyed Stranger
R:hp 16 reel
M: 4/4
L: 1/8
K:Gmaj
|:G2D2 D2GF|EDEF G2 GA|B2d2 cBAG|E2 F2 G4:|
GABc d2d2|edcB A2A2|GABc d2d2|B3c d4|
GABc d2d2|edcB A2G2|A2c2 BAGF|E2 F2 G4||

